X:1
T:[ID 1-138a]
T:[ID 1-138a]
T:Bezeichnung standardisiert: Menuett Menuet
T:Urheber unbekannt Datum in der hier transkribierten schriftlichen Quelle: vermutlich vor 1767
C:Urheber unbekannt
C:Datum in der hier transkribierten schriftlichen Quelle: vermutlich vor 1767
L:1/8
M:3/4
K:D
V:1 treble 
V:1
 d2 d2 df | A2 A2 Ad | F2 F2 FA | (6:5:1A,6 B,/C/ | D4 E2 | F2 DEFG | A2 BAGF | E6 :: e2 e2 e2 | %9
 e2 dcBA | f2 f2 f2 | f2 edcB | A4 B2 | A2 Bc d2 | egfedc | d6 :| %16

